X: 28607
T: Music Book, The
R: strathspey
M: 4/4
K: Dmajor
|:(3DDD DF A2 AB|defe dcdA|(3BdB BA FABA|ABAF E2 D2:|
faab afdf|(3 gfe fd edBd|faab afdf|(3gfe fd e2 de|
faab afdf|(3 gfe fd edBd|(3ABA AF DEFG|ABAF E2 D2||

